X: 2
T: The Sligo Maid
R: reel
M: 4/4
L: 1/8
K: Ador
|: A2BA Bdef | gedB AGEF | G2BG DGBG | DEGA BddB |A2BA Bdef | gedB AGEG | AB3 AEGE | DEGA B2AB :||: eaag a2ga | ^baggf gedg | eggf g2ge | dega bgag |eaag a2ga | ^baggf gedg | egg2 edBc | dBgB BAA2 :||: A2BA Bdeg | gedB AGEF | G3B AEE2 | DEGA BddB |A2BA Bdeg | gedB AGEG | AB3 AEGE | DEGA BAA2 :|


Tune 399	Setting 29393

